Resources/Icons/PCGEx_Editor_From_Center.svg

<?xml version="1.0" encoding="UTF-8"?>
<svg id="icons" xmlns="http://www.w3.org/2000/svg" viewBox="0 0 100 100">
  <defs>
    <style>
      .cls-1 {
        fill: #fff;
      }
    </style>
  </defs>
  <path d="M50,65.59c-.64,0-1.28-.24-1.77-.73l-13.09-13.09c-.47-.47-.73-1.1-.73-1.77s.26-1.3.73-1.77l13.09-13.09c.47-.47,1.1-.73,1.77-.73h0c.66,0,1.3.26,1.77.73l13.09,13.09c.98.98.98,2.56,0,3.54l-13.09,13.09c-.49.49-1.13.73-1.77.73ZM40.44,50l9.56,9.55,9.55-9.55-9.55-9.56-9.56,9.56Z"/>
  <path class="cls-1" d="M72.78,75.28H27.22c-1.38,0-2.5-1.12-2.5-2.5V27.22c0-1.38,1.12-2.5,2.5-2.5h45.57c1.38,0,2.5,1.12,2.5,2.5v45.57c0,1.38-1.12,2.5-2.5,2.5ZM27.44,72.56h45.13V27.44H27.44v45.13Z"/>
  <rect class="cls-1" x="40.74" y="40.74" width="18.51" height="18.51" transform="translate(-20.71 50) rotate(-45)"/>
</svg>

<svg id="icons" xmlns="http://www.w3.org/2000/svg" viewBox="0 0 100 100">
    <defs>
        <style>.cls-1{fill:#fff;}</style>
    </defs>
    <path d="M50,65.59a2.49,2.49,0,0,1-1.77-.73L35.14,51.77a2.51,2.51,0,0,1,0-3.54L48.23,35.14A2.51,2.51,0,0,1,50,34.41h0a2.51,2.51,0,0,1,1.77.73L64.86,48.23a2.52,2.52,0,0,1,0,3.54L51.77,64.86A2.49,2.49,0,0,1,50,65.59ZM40.44,50,50,59.55,59.55,50,50,40.44Z"/>
    <path class="cls-1"
          d="M72.78,75.28H27.22a2.49,2.49,0,0,1-2.5-2.5V27.22a2.5,2.5,0,0,1,2.5-2.5H72.78a2.49,2.49,0,0,1,2.5,2.5V72.78A2.49,2.49,0,0,1,72.78,75.28ZM27.44,72.56H72.56V27.44H27.44Z"/>
    <rect class="cls-1" x="40.74" y="40.74" width="18.51" height="18.51" transform="translate(-20.71 50) rotate(-45)"/>
</svg>
